X: 1
T: Laughing Seagull, The
M: 6/8
L: 1/8
R: jig
K: Dmaj
|:Add fdd |  ffg fdd | cee fee | cef gec |
Add fdd |  ffg fdd | aAA cAA | gec edd :|
|:afd fdd |  ffg fdd | cee fee | Ace aec |
Add fdd |  ffg fdd | aAA cAA | g/2f/2ec edd :|
